humanity-icon-theme/Humanity/apps/48/gnome-fs-bookmark-missing.svg

<?xml version="1.0" encoding="UTF-8" standalone="no"?>
<!-- Created with Inkscape (http://www.inkscape.org/) -->

<svg
   xmlns:svg="http://www.w3.org/2000/svg"
   xmlns="http://www.w3.org/2000/svg"
   xmlns:xlink="http://www.w3.org/1999/xlink"
   version="1.1"
   width="48"
   height="48"
   id="svg2418">
  <defs
     id="defs2420">
    <radialGradient
       cx="62.625"
       cy="4.625"
       r="10.625"
       fx="62.625"
       fy="4.625"
       id="radialGradient2499-518"
       xlink:href="#linearGradient8838-487"
       gradientUnits="userSpaceOnUse"
       gradientTransform="matrix(1,0,0,0.341176,0,3.047059)" />
    <linearGradient
       id="linearGradient8838-487">
      <stop
         id="stop2432"
         style="stop-color:black;stop-opacity:1"
         offset="0" />
      <stop
         id="stop2434"
         style="stop-color:black;stop-opacity:0"
         offset="1" />
    </linearGradient>
    <linearGradient
       x1="21.483376"
       y1="21.671062"
       x2="21.483376"
       y2="33.409534"
       id="linearGradient2465-608"
       xlink:href="#linearGradient2250-714"
       gradientUnits="userSpaceOnUse" />
    <linearGradient
       id="linearGradient2250-714">
      <stop
         id="stop2438"
         style="stop-color:#c7c7c7;stop-opacity:1"
         offset="0" />
      <stop
         id="stop2440"
         style="stop-color:#a5a5a5;stop-opacity:1"
         offset="1" />
    </linearGradient>
    <linearGradient
       x1="21.483376"
       y1="36.345936"
       x2="21.483376"
       y2="9.5799999"
       id="linearGradient2467-856"
       xlink:href="#linearGradient3215-22"
       gradientUnits="userSpaceOnUse" />
    <linearGradient
       id="linearGradient3215-22">
      <stop
         id="stop2444"
         style="stop-color:#6d6d6d;stop-opacity:1"
         offset="0" />
      <stop
         id="stop2446"
         style="stop-color:#999;stop-opacity:1"
         offset="1" />
    </linearGradient>
    <linearGradient
       x1="21.483376"
       y1="9.463129"
       x2="21.483376"
       y2="26.294357"
       id="linearGradient5541-370"
       xlink:href="#linearGradient5178-177"
       gradientUnits="userSpaceOnUse"
       gradientTransform="matrix(1.5575239,0,0,1.5420736,-9.4936458,-12.492178)" />
    <linearGradient
       id="linearGradient5178-177">
      <stop
         id="stop2450"
         style="stop-color:white;stop-opacity:1"
         offset="0" />
      <stop
         id="stop2452"
         style="stop-color:#e1e1e1;stop-opacity:1"
         offset="0.8918919" />
      <stop
         id="stop2454"
         style="stop-color:#c3c3c3;stop-opacity:0"
         offset="1" />
    </linearGradient>
    <linearGradient
       x1="24.097157"
       y1="9.5958176"
       x2="23.673159"
       y2="22.839001"
       id="linearGradient2476-945"
       xlink:href="#linearGradient3230-405"
       gradientUnits="userSpaceOnUse"
       gradientTransform="matrix(1.3469077,0,0,1.3469077,-8.3257881,-6.6326722)" />
    <linearGradient
       id="linearGradient3230-405">
      <stop
         id="stop2458"
         style="stop-color:#ececec;stop-opacity:1"
         offset="0" />
      <stop
         id="stop2460"
         style="stop-color:#c9c9c9;stop-opacity:1"
         offset="1" />
    </linearGradient>
  </defs>
  <g
     id="layer1">
    <path
       d="m 73.25,4.625 a 10.625,3.625 0 1 1 -21.25,0 10.625,3.625 0 1 1 21.25,0 z"
       transform="matrix(2.149872,0,0,2.5636643,-110.63573,26.84977)"
       id="path8836"
       style="opacity:0.3;fill:url(#radialGradient2499-518);fill-opacity:1;fill-rule:evenodd;stroke:none;stroke-width:0.99999988;marker:none;visibility:visible;display:inline;overflow:visible" />
    <path
       d="m 21.483376,9.9840555 c 0.919992,0 3.886028,7.4090065 4.630318,7.9497645 0.744289,0.540758 8.707228,1.072117 8.991522,1.947082 0.284293,0.874965 -5.845536,5.985341 -6.129829,6.860306 -0.284293,0.874965 1.671038,8.612369 0.926748,9.153127 -0.744289,0.540758 -7.498767,-3.709862 -8.41876,-3.709862 -0.919992,0 -7.67447,4.25062 -8.41876,3.709862 -0.744289,-0.540758 1.211042,-8.278163 0.926749,-9.153127 -0.284293,-0.874965 -6.4141217,-5.985342 -6.1298284,-6.860307 0.2842933,-0.874964 8.2472324,-1.406323 8.9915224,-1.947081 0.744289,-0.540758 3.710326,-7.9497645 4.630318,-7.9497645 z"
       transform="matrix(1.6508808,0,0,1.6568311,-11.466494,-15.045759)"
       id="path1307"
       style="fill:url(#linearGradient2465-608);fill-opacity:1;fill-rule:nonzero;stroke:url(#linearGradient2467-856);stroke-width:0.59997541;stroke-linecap:butt;stroke-linejoin:round;stroke-miterlimit:4;stroke-opacity:1;stroke-dasharray:none;stroke-dashoffset:0;marker:none;visibility:visible;display:inline;overflow:visible" />
    <path
       d="m 24,2.5 c 2.255601,4.3171106 4.478429,8.952433 6.73403,13.269542 4.843973,0.789864 9.951199,1.930733 14.795172,2.720597 -3.449934,3.457984 -6.89987,6.91597 -10.349804,10.373955 0.738138,4.805274 1.213021,9.259541 1.95116,14.064815 C 32.742781,40.748952 28.355003,38.568994 23.967226,36.389035 19.579447,38.568994 15.19167,40.748952 10.803892,42.928909 11.542029,38.123635 11.929163,33.581617 12.6673,28.776343 9.2173666,25.318358 5.7674325,21.860372 2.3174996,18.402388 7.1614709,17.612524 12.356449,16.559406 17.20042,15.769542 19.456021,11.452433 21.744398,6.8171106 24,2.5 z"
       id="path1309"
       style="fill:none;stroke:url(#linearGradient5541-370);stroke-width:0.99999994;stroke-linecap:butt;stroke-linejoin:round;stroke-miterlimit:4;stroke-opacity:1;stroke-dasharray:none;stroke-dashoffset:0;marker:none;visibility:visible;display:inline;overflow:visible" />
    <path
       d="M 24,3.5016193 17.482712,16.179705 3.4573308,18.606589 10.777151,26.144614 C 14.936585,22.073555 18.959155,22.096885 24,22.182123 c 5.040847,0.08524 8.896646,0.454789 12.898383,4.004952 L 44.627479,18.797249 30.344521,16.091954 24,3.5016193 z"
       id="path1322"
       style="fill:url(#linearGradient2476-945);fill-opacity:1;fill-rule:nonzero;stroke:none;stroke-width:1;marker:none;visibility:visible;display:inline;overflow:visible" />
    <path
       d="m 36.457966,42.854576 c 0,0 -4.318414,-3.742625 -10.076299,-4.894202"
       id="path11014"
       style="fill:none;stroke:#b7b7b7;stroke-width:1;stroke-linecap:butt;stroke-linejoin:miter;stroke-miterlimit:4;stroke-opacity:1;stroke-dasharray:none;display:inline" />
    <path
       d="m 11.175618,42.854576 c 0,0 4.318413,-3.742625 10.076298,-4.894202"
       id="path11985"
       style="fill:none;stroke:#b7b7b7;stroke-width:1;stroke-linecap:butt;stroke-linejoin:miter;stroke-miterlimit:4;stroke-opacity:1;stroke-dasharray:none;display:inline" />
  </g>
</svg>

<?xml version="1.0" encoding="UTF-8" standalone="no"?>
<!-- Created with Inkscape (http://www.inkscape.org/) -->
<svg id="svg2418" xmlns="http://www.w3.org/2000/svg" height="48" width="48" version="1.1" xmlns:xlink="http://www.w3.org/1999/xlink">
 <defs id="defs2420">
  <radialGradient id="radialGradient2499-518" gradientUnits="userSpaceOnUse" cy="4.625" cx="62.625" gradientTransform="matrix(1 0 0 .34118 0 3.0471)" r="10.625">
   <stop id="stop2432" offset="0"/>
   <stop id="stop2434" style="stop-opacity:0" offset="1"/>
  </radialGradient>
  <linearGradient id="linearGradient2465-608" y2="33.41" gradientUnits="userSpaceOnUse" x2="21.483" y1="21.671" x1="21.483">
   <stop id="stop2438" style="stop-color:#c7c7c7" offset="0"/>
   <stop id="stop2440" style="stop-color:#a5a5a5" offset="1"/>
  </linearGradient>
  <linearGradient id="linearGradient2467-856" y2="9.58" gradientUnits="userSpaceOnUse" x2="21.483" y1="36.346" x1="21.483">
   <stop id="stop2444" style="stop-color:#6d6d6d" offset="0"/>
   <stop id="stop2446" style="stop-color:#999" offset="1"/>
  </linearGradient>
  <linearGradient id="linearGradient5541-370" y2="26.294" gradientUnits="userSpaceOnUse" x2="21.483" gradientTransform="matrix(1.5575 0 0 1.5421 -9.4936 -12.492)" y1="9.4631" x1="21.483">
   <stop id="stop2450" style="stop-color:#fff" offset="0"/>
   <stop id="stop2452" style="stop-color:#e1e1e1" offset=".89189"/>
   <stop id="stop2454" style="stop-color:#c3c3c3;stop-opacity:0" offset="1"/>
  </linearGradient>
  <linearGradient id="linearGradient2476-945" y2="22.839" gradientUnits="userSpaceOnUse" x2="23.673" gradientTransform="matrix(1.3469 0 0 1.3469 -8.3258 -6.6327)" y1="9.5958" x1="24.097">
   <stop id="stop2458" style="stop-color:#ececec" offset="0"/>
   <stop id="stop2460" style="stop-color:#c9c9c9" offset="1"/>
  </linearGradient>
 </defs>
 <g id="layer1">
  <path id="path8836" style="opacity:.3;fill-rule:evenodd;fill:url(#radialGradient2499-518)" d="m73.25 4.625a10.625 3.625 0 1 1 -21.25 0 10.625 3.625 0 1 1 21.25 0z" transform="matrix(2.1499 0 0 2.5637 -110.64 26.85)"/>
  <path id="path1307" style="stroke-linejoin:round;stroke:url(#linearGradient2467-856);stroke-width:.59998;fill:url(#linearGradient2465-608)" d="m21.483 9.9841c0.91999 0 3.886 7.409 4.6303 7.9498 0.74429 0.54076 8.7072 1.0721 8.9915 1.9471 0.28429 0.87496-5.8455 5.9853-6.1298 6.8603-0.28429 0.87496 1.671 8.6124 0.92675 9.1531-0.74429 0.54076-7.4988-3.7099-8.4188-3.7099-0.91999 0-7.6745 4.2506-8.4188 3.7099-0.74429-0.54076 1.211-8.2782 0.92675-9.1531-0.28429-0.87496-6.4141-5.9853-6.1298-6.8603 0.28429-0.87496 8.2472-1.4063 8.9915-1.9471 0.74429-0.54076 3.7103-7.9498 4.6303-7.9498z" transform="matrix(1.6509 0 0 1.6568 -11.466 -15.046)"/>
  <path id="path1309" style="stroke-linejoin:round;stroke:url(#linearGradient5541-370);fill:none" d="m24 2.5c2.2556 4.3171 4.4784 8.9524 6.734 13.27 4.844 0.78986 9.9512 1.9307 14.795 2.7206-3.4499 3.458-6.8999 6.916-10.35 10.374 0.73814 4.8053 1.213 9.2595 1.9512 14.065-4.387-2.181-8.775-4.361-13.163-6.541-4.388 2.18-8.775 4.36-13.163 6.54 0.738-4.805 1.125-9.347 1.863-14.153-3.4496-3.458-6.8996-6.916-10.35-10.374 4.8445-0.789 10.039-1.843 14.883-2.632 2.256-4.318 4.544-8.9529 6.8-13.27z"/>
  <path id="path1322" style="fill:url(#linearGradient2476-945)" d="m24 3.5016-6.517 12.678-14.026 2.427 7.32 7.538c4.16-4.071 8.182-4.048 13.223-3.963 5.0408 0.08524 8.8966 0.45479 12.898 4.005l7.729-7.39-14.282-2.705-6.345-12.59z"/>
  <path id="path11014" style="stroke:#b7b7b7;fill:none" d="m36.458 42.855s-4.3184-3.7426-10.076-4.8942"/>
  <path id="path11985" style="stroke:#b7b7b7;fill:none" d="m11.176 42.855s4.3184-3.7426 10.076-4.8942"/>
 </g>
</svg>
